X:1
T:Title
L:1/8
Q:1/4=140
M:6/8
K:G
V:1 treble nm="Grand Piano"
V:1
 G2 E G3 | F6 | A2 F A3 | G6 | E2 E c2 c | B2 _B =B3- | B6 | A2 B A3 | G6 | F2 G F3 | E6 | %11
w: ????~???? * *|||||||||||
 B,2 B, ^D2 D | F2 G E3- | E3- E2 B | B2 c B3- | B3- B2 B | B2 c B3- | B3- B2 B | d2 d c3- | %19
w: ||||||||
 c3- c2 A | c2 c B3- | B3- B2 B | B2 c B2 ^G | A2 B A2 F | G2 A G2 E | F2 G F3- | F3- F2 A | %27
w: ||||||||
 A2 B A2 F | G2 A G2 E | F2 G F2 ^D | E2 F E3- | E6 |] %32
w: |||||

